X:1
T:Veni sancte spiritus
T:Berthier
%%score 1 2 3 4
L:1/8
M:4/4
K:G
V:1 treble nm="Soprano" snm="S."
V:2 treble nm="Alto" snm="A."
V:3 treble-8 nm="Tenor" snm="T."
V:4 bass nm="Bass" snm="B."
V:1
 B,2 B,2 B,2 B,2 | E2 F2 ^D4 | E2 EF G2 G2 | A2 GA B2 B2 | B2 B2 c2 c2 | d2 A2 B4 | G2 G2 A2 G2 | %7
 FE F2 E4 |] %8
V:2
 B,2 B,2 B,2 B,2 | C2 C2 B,4 | B,2 B,B, E2 E2 | E2 EE ^D2 D2 | E2 D2 C2 E2 | CE F2 [DG]4 | %6
w: ve- ni sanc- te|spi- ri- tus|tu- i a- mo- ris|i- gnem a- ccen- de|ve- ni sanc- te|spi _ ri- tus|
 E2 E2 F2 E2 | E2 ^D2 E4 |] %8
w: ve- ni sanc- te|spi- ri- tus|
V:3
 G2 G2 F2 F2 | G2 A2 F4 | G2 GF E2 E2 | A2 BA F2 F2 | G2 G2 A2 A2 | FG A2 G4 | c2 c2 c2 B2 | %7
 B2 F2 E4 |] %8
V:4
 E,2 E,2 D,2 D,2 | C,2 A,,2 B,,4 | E,2 E,D, C,2 C,2 | C,2 C,C, B,,2 B,,2 | E,2 E,2 A,,2 A,,2 | %5
 D,2 D,2 G,4 | C2 B,2 A,2 E,2 | B,,2 B,,2 E,4 |] %8

